Papirus/22x22/apps/distributor-logo-openmandriva.svg

<svg width="22" height="22" version="1.1" xmlns="http://www.w3.org/2000/svg">
 <circle cx="11" cy="11.5" r="10" style="opacity:.2"/>
 <circle cx="11" cy="11" r="10" style="fill:#248afd"/>
 <path d="M 11,1 A 10,10 0 0 0 1,11 10,10 0 0 0 1.0098,11.293 10,10 0 0 1 11,1.5 10,10 0 0 1 20.99,11.207 10,10 0 0 0 21,11 10,10 0 0 0 11,1 Z" style="fill:#ffffff;opacity:.2"/>
 <path d="m 11,3.5 a 8,8 0 0 0 -8,8 8,8 0 0 0 8,8 8,8 0 0 0 7.574219,-5.447266 A 6.5,6.5 0 0 1 13.5,16.5 6.5,6.5 0 0 1 7,10 6.5,6.5 0 0 1 12.298828,3.6152344 8,8 0 0 0 11,3.5 Z m 2.5,1 A 5.5,5.5 0 0 0 8,10 5.5,5.5 0 0 0 13.5,15.5 5.5,5.5 0 0 0 19,10 5.5,5.5 0 0 0 13.5,4.5 Z m 0,1 A 4.5,4.5 0 0 1 18,10 4.5,4.5 0 0 1 13.5,14.5 4.5,4.5 0 0 1 9,10 4.5,4.5 0 0 1 13.5,5.5 Z" style="opacity:.2"/>
 <path d="m11 3a8 8 0 0 0-8 8 8 8 0 0 0 8 8 8 8 0 0 0 7.574219-5.447266 6.5 6.5 0 0 1-5.074219 2.447266 6.5 6.5 0 0 1-6.5-6.5 6.5 6.5 0 0 1 5.298828-6.3847656 8 8 0 0 0-1.298828-0.1152344zm2.5 1a5.5 5.5 0 0 0-5.5 5.5 5.5 5.5 0 0 0 5.5 5.5 5.5 5.5 0 0 0 5.5-5.5 5.5 5.5 0 0 0-5.5-5.5zm0 1a4.5 4.5 0 0 1 4.5 4.5 4.5 4.5 0 0 1-4.5 4.5 4.5 4.5 0 0 1-4.5-4.5 4.5 4.5 0 0 1 4.5-4.5z" style="fill:#ffffff"/>
</svg>

<svg xmlns="http://www.w3.org/2000/svg" width="22" height="22" version="1.1">
 <circle style="opacity:0.2" cx="11" cy="11.5" r="10"/>
 <circle style="fill:#248afd" cx="11" cy="11" r="10"/>
 <path style="opacity:0.2;fill:#ffffff" d="M 11,1 A 10,10 0 0 0 1,11 10,10 0 0 0 1.0098,11.293 10,10 0 0 1 11,1.5 10,10 0 0 1 20.99,11.207 10,10 0 0 0 21,11 10,10 0 0 0 11,1 Z"/>
 <path style="opacity:0.2" d="M 11,3.5 A 8,8 0 0 0 3,11.5 8,8 0 0 0 11,19.5 8,8 0 0 0 18.574,14.053 6.5,6.5 0 0 1 13.5,16.5 6.5,6.5 0 0 1 7,10 6.5,6.5 0 0 1 12.299,3.6152 8,8 0 0 0 11,3.5 Z M 13.5,4.5 A 5.5,5.5 0 0 0 8,10 5.5,5.5 0 0 0 13.5,15.5 5.5,5.5 0 0 0 19,10 5.5,5.5 0 0 0 13.5,4.5 Z M 13.5,5.5 A 4.5,4.5 0 0 1 18,10 4.5,4.5 0 0 1 13.5,14.5 4.5,4.5 0 0 1 9,10 4.5,4.5 0 0 1 13.5,5.5 Z"/>
 <path style="fill:#ffffff" d="M 11,3 A 8,8 0 0 0 3,11 8,8 0 0 0 11,19 8,8 0 0 0 18.574,13.553 6.5,6.5 0 0 1 13.5,16 6.5,6.5 0 0 1 7,9.5 6.5,6.5 0 0 1 12.299,3.1152 8,8 0 0 0 11,3 Z M 13.5,4 A 5.5,5.5 0 0 0 8,9.5 5.5,5.5 0 0 0 13.5,15 5.5,5.5 0 0 0 19,9.5 5.5,5.5 0 0 0 13.5,4 Z M 13.5,5 A 4.5,4.5 0 0 1 18,9.5 4.5,4.5 0 0 1 13.5,14 4.5,4.5 0 0 1 9,9.5 4.5,4.5 0 0 1 13.5,5 Z"/>
</svg>
